X: 4961
T: Bren Newman's Britches Full Of Stitches
R: polka
M: 2/4
K: Gmajor
GA|:BG BE|ED GB|A2 AB|A2 GA|
BG BE|ED dB|AG/A/ BG|G2 GA:|
|:Bd ge|dB GA|Bc dg|e>g ed|
(3Bcd ge|dB GA|Bc dB|A>B AG|G2 GA:|

